X: 491
T: THE WHITE-MOUNTAIN MAID
B: O'Neill's 491
Z: 1999 by John Chambers <jc@trillian.mit.edu>
N: "Moderate"
N: Collected by "J.O'Neill"
M: 3/4
L: 1/8
K:D
(DF/A/) \
| Bd e>d fe | d2 B2 AF | E3 DEF | E2 D2 D2 |
| D4 ((3DFE) | D2 DE FG | A2 A2 Bd | e2 f2 dA |
| B2 AF ED | B,4 FE | D>C DE FG | A2 A2 Bd |
| e2 f2 dA | BA F2 ED | E4 (DF/A/) | Bd e>d fe |
| d2 B2 ((3AFD) | E3 DEF | E2 D2 D2 | D4 |]


